X:71
T:The Drunken Landlady
R:reel
M:4/4
L:1/8
K:Edor
BE~E2 BAFA|BE~E2 BAFA|ABAF D2FD|FA~A2 BAFA|
BE~E2 BAFA|BE~E2 BAFA|A2Bc dfec|dBAF E4:|
|:Beed e2de|f2df efdB|ABAF D2FD|FA~A2 BAFA|
Beed e2de|f2df efdB|A2Bc dfec|dBAF E4:|

